X:1
T:Nocturne
T:Nocturne
T:C.Debussy
C:C.Debussy
%%score { ( 1 4 5 6 ) | ( 2 3 7 ) }
L:1/8
Q:1/4=54
M:4/4
K:Db
V:1 treble nm="Piano" snm="Pno."
V:4 treble 
V:5 treble 
V:6 treble 
V:2 bass 
V:3 bass 
V:7 bass 
V:1
"^Lent""^(ad libitum)" z8[Q:1/4=50] | %1
[Q:1/4=54] z2[Q:1/4=40][I:staff +1] (12:8:12(F,/4B,/4D/4[Q:1/4=50][I:staff -1]F/4B/4d/4f/4[Q:1/4=60]b/4[I:staff +1]d'/4f'/4!8va(![I:staff -1]b'/4d''/4[Q:1/4=30] f'')!8va)![Q:1/4=54] z[Q:1/4=52] z2 | %2
[Q:1/4=54] z2[Q:1/4=40][I:staff +1] (13:8:13(_F,/4__B,/4D/4_F/4[Q:1/4=50][I:staff -1]__B/4d/4_f/4__b/4[Q:1/4=60][I:staff +1]d'/4_f'/4!8va(![I:staff -1]__b'/4d''/4_f''/4[Q:1/4=30] __b'')!8va)![Q:1/4=54] z[Q:1/4=52] z2 | %3
[Q:1/4=54] z2[Q:1/4=30][I:staff +1] (17:8:17(_F,/4=G,/4B,/4D/4_F/4[Q:1/4=40][I:staff -1]=G/4B/4d/4_f/4[Q:1/4=50][I:staff +1]=g/4b/4d'/4_f'/4[Q:1/4=40]!8va(![I:staff -1]=g'/4b'/4d''/4_f''/4[Q:1/4=30] !breath!=g'')!8va)![Q:1/4=54]"^rit." (E (3_F[Q:1/4=52]_GE | %4
[Q:1/4=48] D2 C4[Q:1/4=30] _C2) ||!p![Q:1/4=54]"^a Tempo" (g2"^expressif et doux" f>e d2 c>d | %6
 f2 e>d c4)[Q:1/4=52] | %7
[Q:1/4=54] z/ (c/[Q:1/4=53]d/B/)[Q:1/4=54] z/ (B/[Q:1/4=53]c/=G/[Q:1/4=54] A2-) A/[Q:1/4=53](A/B/F/ | %8
[Q:1/4=54] G/F/G/=D/[Q:1/4=53] E/D/[Q:1/4=52]E/B/[Q:1/4=50] =C4)[Q:1/4=48] | %9
!p![Q:1/4=54] z/!<(! ([F,D]/[_CE]/[DF]/ [EA]/>[FB]/!p![EA])!<)! z/!p! ([F,D]/!<(![_CE]/[DF]/ (3[EA]/e/[F_c]/!p![EA])!<)! | %10
!p! z/ ([=B,=G]/[F=A]/[G=B]/ [=A=d]/>[B=e]/[Ad]) z/!p! ([B,G]/[Q:1/4=52]!<(![FA]/[GB]/[Q:1/4=44] (3[Ad]/=a/!<)!!p![Q:1/4=48]!>(![Bf]/[Ad])!>)! | %11
!p![Q:1/4=54] z/ ([=Ge]/[_df]/[_e=g]/- [eg]/"_cresc."[df][Ge]/) z/ ([_Ge]/"_cresc."[_Bf]/[e_g]/- [eg]/"_do"[Bf][Ge]/) | %12
 z/!mp! [Gg]/[Aa]/[Bb]/- [Bb]/"_cresc."[Aa][Gg]/ (3z [Bb][cc'] (3([_dd'][cc'][Bb]) | %13
!f![Q:1/4=54] ([gg']2 [ff']>e' [dd']2 [cc']>[gbd']) | %14
 ([ff']2 [ee']>[dd'] c'2[Q:1/4=52] b[Q:1/4=48]a) |!p![Q:1/4=54] ([Aa]2 [Bb]>[cc'] d'2 f2) | %16
!p! z ([Ff][Bb][Ff] [Ff]>[Ee] [Ff]2) | %17
"^Animez peu à peu"!p![Q:1/4=56] z ([Gg][Aa]!<(![Bb] [cc']2!<)!!p!!>(! [Bb]2)!>)! | %18
[Q:1/4=58] z ([Gg][Aa]!<(![Bb] (3([cc'][ee'][dd'])!<)!!p!!>(! [Bb]2)!>)! | %19
!p![Q:1/4=60] z"_cresc." ([Bb][cc'][dd']"_cresc." [ee']2 [dd']2) | %20
!mp![Q:1/4=62] z ([Bb][cc'][dd'] (3[egbe'][gg'][ff'] [dd']2-) | %21
!f![Q:1/4=64] (3[dgbd']([dgbd'][ee']) (3[cgbc'][cc'][dd'] ([Bdgb]2- (3[Bdgb][Aa][Bb]) | %22
 (3([cc'][ee'][dd']) (3([cc'][cc'][dd'])[Q:1/4=60] [Bdgb]2-[Q:1/4=48] (3!breath![Bdgb][Q:1/4=30]"^dim." !tenuto!A,!tenuto!B,[Q:1/4=56][Q:1/4=52] | %23
[K:bass]"_a Tempo"[Q:1/4=54]!mf! (3!tenuto!C!tenuto!E!tenuto!D (3!tenuto!C!tenuto!C!tenuto!D B,2- (3B,A,B, | %24
"^dim." (3(G,G,-A, (3B,A,B,[Q:1/4=50] C2-)[Q:1/4=46] (3CDE | %25
[K:treble]!p![Q:1/4=54] (3(FFG (3EEF) (D2- (3DEF) |!p! (3(.G.G.A (3.F.F.G) E2-[Q:1/4=52] (3EDE || %27
[K:A]!p![Q:1/4=54]"^très doux" ([G,DE]2 [A,DF]2 [CDA]2 [B,DG][A,DF] | %28
 [G,DE]2 [A,DF]2 [B,DG]2 [DGB]2) |"^en retenant" (3z .e.f (3.d.d.e A4 | %30
 (3z (.e.f (3.d.d.e)[Q:1/4=50] (A a2 a')[Q:1/4=46] || %31
[K:F][M:7/4]!ppp![Q:1/4=108]"^Alltto""^." x !arpeggio![cfa]8 (ag f2 e2) | %32
 z2 !arpeggio![a-a'] x (ab (3c'd'b ag f2 e2) | (defg ac'd'c' ba[Q:1/4=104] g2 e2) | %34
[Q:1/4=108][I:staff +1] (DEFG[I:staff -1] Acdc BA[Q:1/4=104] G2 E2) | %35
!f![Q:1/4=108] z2 ([Aa]2- [Aa][Bb] (3[cc'][dd'][Bb] [Aa][Gg][Q:1/4=104] [Fdf]2 [E^ce]2) | %36
[Q:1/4=108] z2 ([Aa]2- [Aa][Bb] (3[cc'][dd'][Bb] [Aa][Gg][Q:1/4=104] [Fdf]2 [E^ce]2) | %37
[Q:1/4=108] ([Dd][Ee]"_cresc."[Ff][Gg] [Aa][cc'][dd'][cc']"_cresc." [Bb][Aa][Q:1/4=104] [Gg]2 [Ee]2) | %38
[Q:1/4=108] ([Dd][Ee]"_do"!mp![Ff][Gg] [Aa][cc'][Q:1/4=104][dd'][cc'][Q:1/4=100] [_e_e'][dd'][Q:1/4=96] [cc']2!mp![Q:1/4=92] [gg']2) | %39
!p![Q:1/4=108] ([fd'f']2 [^ca^c']2 [dbd']2 [A=fa]2 [B^fb]2 [ege']2 [g_e'g']2) | %40
 ([fd'f']2 [^ca^c']2 [dbd']2 [A=fa]2[Q:1/4=106] [B^fb]2[Q:1/4=104] [ege']2[Q:1/4=102] [g_e'g']2) | %41
!p![Q:1/4=108] [fd'f']8 x e[Q:1/4=104] [Bd]2 [B^c]2 | %42
[Q:1/4=108]"_cresc." [fd'f']8 x e[Q:1/4=104] [Bd]2 [B^c]2 | %43
[Q:1/4=108]!f! z2 (a2- ab"_dim." (3c'd'b ag[Q:1/4=104] f2 e2) | %44
[Q:1/4=108] z2 (a2- ab (3c'd'b ag[Q:1/4=104]"_dim." f2 e2) | %45
[Q:1/4=108] (a2 g2[Q:1/4=104] f2 e2)"_riten."[Q:1/4=92] (ag[Q:1/4=80] f2[Q:1/4=40] e2) || %46
[M:4/4]!pp![Q:1/4=84] [F,B,F]8 | x8 | %48
[Q:1/4=50] z2[Q:1/4=40]!p!!<(![I:staff +1] (12:8:12(F,/4_B,/4_D/4[Q:1/4=50][I:staff -1]F/4_B/4_d/4f/4[Q:1/4=60][I:staff +1]_b/4_d'/4!8va(![I:staff -1]f'/4_b'/4_d''/4[Q:1/4=40] f'')!<)!!8va)! !fermata!z[Q:1/4=30][I:staff +1] (12:8:12(F,/4B,/4D/4[Q:1/4=40][I:staff -1]F/4B/4d/4f/4[Q:1/4=50][I:staff +1]b/4d'/4!8va(![I:staff -1]f'/4b'/4d''/4[Q:1/4=40] f'')!8va)! z | %49
[Q:1/4=84] z8 |[Q:1/4=76] z8[Q:1/4=68] | %51
[Q:1/4=50] z2!p![Q:1/4=40]!<(![I:staff +1] (12:8:12(F,/4A,/4_D/4[Q:1/4=50][I:staff -1]F/4A/4_d/4f/4[Q:1/4=60][I:staff +1]a/4_d'/4!8va(![I:staff -1]f'/4a'/4_d''/4[Q:1/4=40] f'')!<)!!8va)! !fermata!z[Q:1/4=30][I:staff +1] (12:8:12(F,/4A,/4D/4[Q:1/4=40][I:staff -1]F/4A/4d/4f/4[Q:1/4=50][I:staff +1]a/4d'/4!8va(![I:staff -1]f'/4a'/4d''/4[Q:1/4=40] f'')!8va)! z | %52
[Q:1/4=84] z8[Q:1/4=76] |[Q:1/4=60] z8[Q:1/4=30] || %54
[K:Db]"^10 Tempo""^."!pp![Q:1/4=54] (g2 f>e d2 c>d | f2 e>d c4)[Q:1/4=52] | %56
[Q:1/4=54] z/ (c/[Q:1/4=53]d/B/)[Q:1/4=54] z/ (B/[Q:1/4=53]c/=G/)[Q:1/4=54] A2- A/[Q:1/4=53]A/B/F/ | %57
[Q:1/4=54] (G/F/G/=D/[Q:1/4=53] E/D/[Q:1/4=52]E/B/)[Q:1/4=50] =C4[Q:1/4=48] | %58
!p![Q:1/4=54] z/!<(! ([F,D]/[_CE]/[DF]/ [EA]/>[FB]/!p![EA])!<)! z/!p!!<(! ([F,D]/[_CE]/[DF]/ (3[EA]/e/[F_c]/!p![EA])!<)! | %59
!p! z/ ([B,G]/[_FA]/[GB]/ [Ad]/>[Be]/[Ad]) z/ ([B,G]/[Q:1/4=52][FA]/[GB]/[Q:1/4=44] (3[Ad]/a/[B_f]/[Q:1/4=48][Ad]) | %60
[Q:1/4=54]!p! z/!<(! [E_ce]/[Ff]/[Gg]/- [Gg]/[Ff]!<)!!p![Ee]/!p! z/!<(! [G=dg]/[Aa]/[Bb]/- [Bb]/[Aa]!<)!!p![Gg]/ | %61
!mp!"_cresc." z/!<(! [E_ce]/[Ff]/[Gg]/- [Gg]/[Ff]!<)![Ee]/!mf![Q:1/4=53] z/!<(! [G=dg]/[Q:1/4=52][Aa]/[Bb]/-[Q:1/4=50] [Bb]/[Aa]!<)![Q:1/4=40][Gg]/ | %62
!f![Q:1/4=50] ([gg']2[Q:1/4=54] [ff']>[ee']) ([dd']2 [cc']>[dd']) | ([ff']2 [ee']>[dd'] [cc']4) | %64
!ff! (^c'2 =b>)=a (^g2 ^f>)=e | !>!=e2 ^d>e ^f4 |"^dim." (=g2 ^f>=e !>!=d2 !>!^c>d) | %67
"^dim." _e4- e=e[Q:1/4=52]=f_a |[Q:1/4=54] _e4-[Q:1/4=52] e=e[Q:1/4=50]=f_a | %69
[Q:1/4=108]!p! x/x/[Q:1/4=54] (!arpeggio![fd'f']2 e>d c2 B>c) | %70
 (e2 d>c)!p![Q:1/4=53] (B2-[Q:1/4=52] (3Bde) | %71
[Q:1/4=51] (B2-[Q:1/4=50] (3Bde)[Q:1/4=48] (B2[Q:1/4=46] A2)[Q:1/4=52] | %72
!pp! !arpeggio![A,DA]6 !arpeggio!!tenuto!.[__Bd_f__b]2 | %73
[Q:1/4=50] !arpeggio![A,DA]6[Q:1/4=40] !arpeggio!!tenuto!.[__Bd_f__b]2[Q:1/4=46] | %74
!pp![Q:1/4=30] (6:4:5z[Q:1/4=54]!8va(! ([dd']/a/[ee']/a/ (6:4:6[ff']/a/[=g=g']/d'/[ee']/a/ (6:4:6[ff']/d'/[gg']/d'/[aa']/d'/[Q:1/4=53] (6:4:6[bb']/d'/[gg']/d'/[Q:1/4=52][aa']/d'/) | %75
[Q:1/4=48] (6:4:6([bb']/g'/[c'c'']/g'/[d'd'']/g'/[Q:1/4=44] (6:4:6[e'e'']/g'/[Q:1/4=40][c'c'']/g'/[Q:1/4=36][d'd'']/g'/)[Q:1/4=32] .[f'd''f'']!8va)! z!pp! .[Fdf] z | %76
[K:bass] .D, z z2 z4 |] %77
V:2
!pp!!ped! ([B,,,B,,]2 [E,,E,]2 [=A,,,=A,,]2 [D,,D,]2-) | %1
 [D,,D,]2- x2-[K:treble][K:bass] ([D,,D,]!pp![E,,E,] (3[F,,F,][G,,G,][E,,E,])!ped-up! | %2
!ped! [D,,D,]2- x2-[K:treble][K:bass] [D,,D,]([E,,E,] (3[_F,,_F,][_G,,G,][E,,E,])!ped-up! | %3
!ped! [D,,D,]2- x2-[K:treble][K:bass] !breath![D,,D,] z z2!ped-up! | z8 || %5
!ped! (B,4!ped-up!!ped! E4)!ped-up! |!ped! (D2 C>B,!ped-up!!ped! =A,4)!ped-up! | %7
!ped! (_A,2 =G,2!ped-up!!ped! _G,2 F,2)!ped-up! | %8
!ped! (E,>F, G,2)!ped-up!!ped! z ((B,A,)A,,)!ped-up! | %9
!ped! (6:4:6(D,,/A,,/D,/F,/A,/B,/ _C/>D/C)!ped-up!!ped! (6:4:6(D,,/A,,/D,/F,/A,/B,/ C/D/C)!ped-up! | %10
!ped! (6:4:6(=G,,/=D,/=G,/=B,/=D/=E/ F/>=G/F)!ped-up!!ped! (6:4:6(G,,/D,/G,/B,/D/E/ F/G/F)!ped-up! | %11
!ped! (6:4:6(_E,,/_B,,/_E,/=G,/_B,/_E/ =G2)!ped-up!!ped! (6:4:6(E,,/B,,/E,/_G,/B,/E/ _G2)!ped-up! | %12
!ped! (6:4:6(=D,,/B,,/=D,/G,/B,/=D/ G2)!ped-up!!ped! (6:4:6(_D,,/_D,/G,/B,/_D/G/ B2)!ped-up! | %13
!ped! (6:4:6C,,/C,/E,/G,/B,/E/ G2!ped-up!!ped! (6:4:6E,,/B,,/E,/G,/B,/E/[K:treble] [GB]2!ped-up! | %14
[K:bass]!ped! (6:4:6(G,,/D,/G,/B,/D/G/ B2)!ped-up!!ped! (6:4:6(A,,/E,/A,/C/E/G/ BA)!ped-up! | %15
!ped! (6:4:6F,,/D,/F,/A,/E/F/- F2-!ped-up!!ped! [DF]2 D2!ped-up! | %16
!ped! (6:4:6F,,/B,,/F,/A,/-B,/-=D/- F2 D>C D2!ped-up! | %17
!ped! (6:4:6(E,,/B,,/E,/G,/B,/E/ FG)!ped-up![K:treble]!ped! (A2 G2)!ped-up! | %18
[K:bass]!ped! (6:4:6(E,,/B,,/E,/G,/B,/E/ FG)!ped-up![K:treble]!ped! (A2 G2)!ped-up! | %19
[K:bass]!ped! (6:4:6(G,,/D,/G,/[K:treble]B,/D/G/ AB)!ped-up!!ped! (c2 B2)!ped-up! | %20
[K:bass]!ped! (6:4:6(G,,/D,/G,/[K:treble]B,/D/G/ AB)!ped-up![K:treble]!ped! (c2 B2)!ped-up! | %21
[K:bass]!ped! (6:4:6(E,,/B,,/E,/G,/B,/E/[K:treble] [GB]2)!ped-up![K:bass]!ped! (6:4:6G,,,/G,,/D,/G,/B,/D/ G2!ped-up! | %22
!ped! (6:4:6(E,,/B,,/E,/G,/B,/E/[K:treble] [GB]2)!ped-up![K:bass]!ped! (6:4:6G,,,/G,,/D,/G,/B,/D/ G!ped-up! z | %23
!mp!!ped! A,,6!ped-up!!ped! B,,2-!ped-up! | %24
!ped! B,,4!ped-up!!ped! (3z[K:treble] .E.A .e.a!ped-up! |[K:bass]!ped! (D,2 E,2 F,2 E,2)!ped-up! | %26
!ped! =D,2 E,2!ped-up!!ped! G,2 F,2!ped-up! ||[K:A]!ped! (3z[K:treble] (.g.a (3.f.f.g e4)!ped-up! | %28
[K:bass]!ped! (3z[K:treble] (.g.a (3.f.f.g e4)!ped-up! | %29
[K:bass]!ped![I:staff -1] ([C=GA]2[I:staff +1][K:treble] [D=GB]2 [FGd]2 [EGc][DGB]!ped-up! | %30
!ped! [C=GA]2 [DGB]2 [FGd]2 [EGc]2)!ped-up! || %31
[K:F][M:7/4]!ped! (6:4:6x/4x/4x/4x/4x/4x/4"^(Dans le caractère d'une chanson populaire)" !arpeggio![A,CFA]8- [A,CFA]4 !arpeggio![A,^CEG]2!ped-up!!ped! | %32
 !arpeggio![A,CF]8- [A,CF]4 !arpeggio![A,^CEG]2!ped-up! | %33
!ped! [A,DF]6!ped-up!!ped! [A,_E^FA]2!ped-up!!ped! [A,DG]2!ped-up!!ped! [A,B,D]2!ped-up!!ped! [A,^C=E]2!ped-up! | %34
!ped! x6!ped-up![K:bass]!ped! [C,G,C]2!ped-up!!ped! [G,,D,G,]2 [B,,G,]2!ped-up!!ped! [=C,G,]2!ped-up! | %35
 z2 (A,2- A,B, (3CDB, A,G, [F,A,D]2 [G,B,^C]2) | z2 (A,2- A,B, (3CDB, A,G, [F,A,D]2 [G,B,^C]2) | %37
!ped! z4 z2!ped-up!!ped! !arpeggio![F,A,_EG]2!ped-up!!ped! [F,B,DF]2!ped-up!!ped! [F,G,B,D]2!ped-up!!ped! [F,G,B,^C]2!ped-up! | %38
!ped! z4 z2!ped-up!!ped! !arpeggio![F,B,=EG]2!ped-up!!ped! !arpeggio![F,=B,_E_A]2!ped-up!!ped! !arpeggio![F,CE=A]2!ped-up![K:treble]!ped! [_EAc]2!ped-up! | %39
[K:bass]!ped! z2!ped-up![K:treble]!ped! ([FA]2!ped-up!!ped! [^FB]2!ped-up!!ped! [^C=F]2!ped-up!!ped! [D^F]2!ped-up!!ped! [^CEG]2!ped-up!!ped! [F,=C_EA]2)!ped-up! | %40
!ped! (dB!ped-up!!ped!AF!ped-up!!ped! ^FD!ped-up!!ped!^C=F)!ped-up!!ped! (D^F!ped-up!!ped! GB!ped-up!!ped! =c_e)!ped-up! | %41
[K:bass]!ped! z2 A,2- A,B, (3CDB,!ped-up!!ped! A,G,!ped-up!!ped! [F,B,]2!ped-up!!ped! [E,B,]2!ped-up! | %42
!ped! z2 A,2- A,B, (3CDB,!ped-up!!ped! A,G,!ped-up!!ped! [F,B,]2!ped-up!!ped! [E,B,]2!ped-up! | %43
!ped! x4!ped-up![K:treble]!ped! [^CFA^c]4!ped-up!!ped! [DFAd]2!ped-up!!ped! [=B,FA=B]2!ped-up!!ped! [=CFA=c]2!ped-up! | %44
!ped! [^CFA^c]4!ped-up!!ped! [DFAd]4!ped-up!!ped! B2!ped-up!!ped! G4!ped-up! | %45
!ped! B8!ped-up!!ped! B2 G4!ped-up! ||[M:4/4][K:bass]!pp!!ped! x4 x (_E, (3F,"^(♮)"G,E,!ped-up! | %47
 _D,3 C, B,,2 =A,,2) | %48
!ped! x2 (12:8:3x7/4[K:treble] x x/4!ff! z2[K:bass]!ppp! (12:8:3x7/4[K:treble] x x/4[K:bass] x2 | %49
[K:bass]!pp! (_D,4- D,_E, (3F,"^(♮)"G,E,!ped-up! | _D,3 C, B,,2!ped! =A,,2-) | %51
 x2 (12:8:3x7/4[K:treble] x x/4!ff! z2[K:bass]!ppp! (12:8:3x7/4[K:treble] x x/4[K:bass] x2 | %52
[K:bass] (A,,4- A,,=B,, (3^C,^D,B,,!ped-up! | A,,2 =B,,4 A,,2) || %54
[K:Db]!ped! (A,,,A,,E,G, B,E,G,B,)!ped-up! |!ped! (D2 C>B,!ped-up!!ped! =A,4)!ped-up! | %56
!ped! _A,2 =G,2!ped-up!!ped! _G,2 F,2!ped-up! |!ped! E,>F, G,2!ped-up!!ped! z ((B,A,)A,,)!ped-up! | %58
!ped! (6:4:6(D,,/A,,/D,/F,/A,/B,/) (_C/>D/C)!ped-up!!ped! (6:4:6(D,,/A,,/D,/F,/A,/B,/) (C/D/C)!ped-up! | %59
!ped! (6:4:6(G,,/D,/G,/B,/D/E/ _F/>G/F)!ped-up!!ped! (6:4:6(G,,/D,/G,/B,/D/E/) (_F/G/F)!ped-up! | %60
!ped! (6:4:6(_C,,/G,,/_C,/E,/G,/_C/ E2)!ped-up!!ped! (6:4:6(B,,/=D,/G,/A,/B,/=D/ G2)!ped-up! | %61
!ped! (6:4:6(_C,,/G,,/_C,/E,/G,/_C/ E2)!ped-up!!ped! (6:4:6(B,,/=D,/G,/A,/B,/=D/ G2)!ped-up! | %62
!ped! (6:4:6G,,,/G,,/D,/G,/B,/D/ G2!ped-up!!ped! (6:4:6B,,/D,/F,/B,/D/F/[K:treble] B2!ped-up! | %63
[K:bass]!ped! (6:4:6(E,,/B,,/E,/G,/B,/E/ G2)!ped-up!!ped! (6:4:6(A,,,/A,,/E,/A,/C/E/)[K:treble] !>!G!>!A!ped-up! | %64
!ped! (!>!=A2 ^G>^F =E2 ^D>E)!ped-up! |!ped! ^G2 ^F>=E E2 ^D2!ped-up! | %66
[K:bass]!ped! (=D4 ^F2 =E>)D!ped-up! |!ped! (_D4!ped-up!!ped! C4)!ped-up! | %68
!ped! (_D4!ped-up!!ped! C4)!ped-up! |[K:treble]!ped! (3x/x/x/ !arpeggio![A,DFA]8- | %70
 [DFA]4!ped-up!!ped! (=E2 F2) | (=E2 _E2!ped-up!!ped! =D _D2 C)[K:bass]!ped-up!!ped! | %72
[K:bass] !arpeggio![A,,F,]6!ped-up!!ped! !arpeggio![_F,__B,D_F]2!ped-up!!ped! | %73
 !arpeggio![A,,F,]6!ped-up!!ped! !arpeggio![_F,__B,D_F]2!ped-up! | %74
!ped! (3[D,,,D,,]"^très léger".D,,.A,, (3.D,.F,.A, (3.D.F,.A, (3.D.F.A | %75
[K:treble] (3.d.D.F (3.A.d.f .[dad'] z[K:bass] .[D,A,D] z | .[D,,,D,,] z z2 z4!ped-up! |] %77
V:3
 x8 | x2 (3:2:2x2[K:treble]!ppp! x[K:bass] x4 | x2 (13:8:3x2 x[K:treble] x/4[K:bass] x4 | %3
 x2 (17:8:3x2 x/4[K:treble] x2[K:bass] x4 | x8 || z .E,, z2 z .E,, z2 | z .E,, z2 z2 F,,2 | %7
 z B,, z E,, z A,,3- | A,,4 A,,, x x2 | x8 | x8 | x8 | x8 | !>!C,,2 x2 !>!E,,2[K:treble] x2 | %14
[K:bass] !>!B,,,2 x2 !>!A,,,2 [CEG]2 | F,, (A, D-C) B,2 =A,2 | F,,2 [A,-B,-D]2 [A,B,]4 | %17
 E,,4[K:treble] [B,E]4 |[K:bass] E,,4[K:treble] [B,E]4 |[K:bass] G,,4[K:treble] [DG]4 | %20
[K:bass] G,,4[K:treble][K:treble] [DG]4 |[K:bass] E,,,4[K:treble][K:bass] G,,,4 | %22
 E,,,4[K:treble][K:bass] G,,,4 | E,,4 =D,,4 | E,,4 [A,,,A,,]4[K:treble] |[K:bass] x8 | x8 || %27
[K:A] E,,8[K:treble] |[K:bass] E,,8[K:treble] |[K:bass] x2[K:treble] x6 | x8 || %31
[K:F][M:7/4] x x8 x2 x3/2 (3x/4x/4x/4 x3/2 x/8x/8x/8x/8 | x8 x2 x3/2 (3x/4x/4x/4 x2 | x14 | %34
 x6[K:bass] x8 | [F,,C,F,]8 x4 x2 | [F,,C,F,]8 x4 x2 | [F,,,F,,]8 x4 x2 | %38
 [F,,,F,,]8 x4[K:treble] x2 |[K:bass] [B,,,B,,]8[K:treble] x6 | x8 x2 [^CE]2 [=FA]2 | %41
[K:bass] [B,,,F,,B,,]8 x4 x2 | [B,,,F,,B,,]8 x4 x2 | [C,,,C,,]8[K:treble] x6 | x8 ^DE =D2 ^C2 | %45
 (^D2 E2 A2 G2) (^DE =D2 C2) ||[M:4/4][K:bass] (_D,,4- D,,_E,, (3F,,G,,E,, | %47
 _D,,3 C,, B,,,2 =A,,,2) | !fermata![_D,,_D,]8-[K:treble][K:bass][K:treble][K:bass] x-x- | %49
[K:bass] (_D,,4- D,,_E,, (3F,,G,,E,, | _D,,3 C,, B,,,2 =A,,,2-) | %51
 !fermata![=A,,,=A,,]8-[K:treble][K:bass][K:treble][K:bass] x-x- | %52
[K:bass] (A,,,4- A,,,=B,,, (3^C,,^D,,B,,, | A,,,2 =B,,,4 A,,,2) ||[K:Db] x8 | z E,, z2 z2 F,,2 | %56
 z B,, z E,, z A,,3- | A,,4 A,,, x x2 | x8 | x8 | _C,,4 B,,,4 | _C,,4 B,,,4 | %62
 G,,,4 B,,,4[K:treble] |[K:bass] !>!E,,,4 x2[K:treble] [CE]2 | [^F,^C=E]8 | [A,^C]4 =B,4 | %66
[K:bass] z2 =B,, z z4 | z2 E, z z2 A,, z | z2 E, z z2 A,, z |[K:treble] x9 | A,4 A,4- | %71
 A,8[K:bass] |[K:bass] D,,E,, (3F,,G,,E,, D,,4 | D,,E,, (3F,,G,,E,, D,,4 | x8 | %75
[K:treble] x6[K:bass] x2 | x8 |] %77
V:4
 x8 | x11/3!8va(! x4/3!8va)! x3 | x85/24!8va(! x47/32!8va)! x3 | %3
 x211/60!8va(! x22/15!8va)! x181/60 | x8 || z/ [GB][GB][GB][GB]/ z/ [GB][GB][GB][GB]/ | %6
 z/ [GB][GB][GB][EG]/ z/ [EG][EG][EG][EG]/ | x/ [DF]3/2 x/ [DF]3/2 z/ [CE][CE]/ z/ [_C=D]3/2 | %8
 [B,E]>_C B,2 G,4 | x8 | x8 | x8 | x/ =d3/2 d2 x4 | z/ [be'][be'][gb][eg]/ z/ [gb][gb][gb]d/ | %14
 z/ [gb][gb][gb]g/ z/ [eg][eg][eg][eg]/ | %15
 z/ [df][df]/ x/ [df] x/ [df]/"_dim."[df][df]/ [Fd]/[Fd][Fd]/ | %16
 z/ [B=d][Bd][Bd][Bd]/ z/ [Bd][Bc][Bd][Bd]/ | z/ [Be][Be][Be][eg]/ z/ [eg][eg][eg][eg]/ | %18
 z/ [Be][Be][Be][eg]/ [ea]2 z/ [eg][eg]/ | z/ [dg][dg][dg][gb]/ z/ [gb][gb][gb]"_do"[gb]/ | %20
 z/ [dg]"_cresc."[dg][dg][gb]/ x2 z/ [gb][gb]/- | x8 | [gb]2 [gb]2 x4 |[K:bass] G,6 F,2- | %24
 (F,2 [E,G,]2) [E,G,]4 |[K:treble] [A,_C]8 | [A,_C]8 ||[K:A] x8 | x8 | x8 | x8 || %31
[K:F][M:7/4] x z2"^(une  vaut la  du Mouv.t prècèdent)" a2- ab (3c'd'b x2 x3/2 x/4x/4 !arpeggio![B^c]2 | %32
 !arpeggio![Ac]8 x2 x3/2 x/4x/4 !arpeggio![B^c]2 | A4 x2 dc BA G2 G2 | x4 A2 [EG]2 [DG]2 D2 =C2 | %35
 [A,FA]8 x4 x2 | [A,FA]8 x4 x2 | x6 g2 d2 d2 ^c2 | x6 g2 _a2 =a2 c'2 | x14 | x14 | %41
 z2 A2- AB"_cresc." (3cdB AE D2 ^C2 | z2 A2- AB (3cdB AE D2 ^C2 | [CFAc]4 x4 x4 x2 | x8 c2 B4 | %45
 c8 c2 B4 ||[M:4/4] x8 | x8 | x7/2!8va(! x3/2!8va)! x5/2!8va(! x3/2!8va)! x | x8 | x8 | %51
 x7/2!8va(! x3/2!8va)! x5/2!8va(! x3/2!8va)! x | x8 | x8 || %54
[K:Db] z/ [GB][GB][GB][GB]/ z/ [GB][GB][GB][GB]/ | z/ [GB][GB][GB][EG]/ z/ [EG][EG][EG][EG]/ | %56
 x/ [DF]3/2 x/ [DF]3/2 z/ [CE][CE]/ z/ [_C=D]3/2 | [B,E]>_C B,2 G,4 | x8 | x8 | %60
 x2 x/ _c3/2 x2 x/ =d3/2 | x2 x/ _c3/2 x2 x/ =d3/2 | %62
 z/ [bd'][bd']/ z/ [bd']3/2 z/ [fb][fb]/ z/ [fb]3/2 | %63
 z/ [gb][gb]/ z/ [gb]3/2 z/ [eg][eg][eg][eg]/ | %64
 z/"^appassionato" [^c=e][ce][ce][ce]/ z/ [=Ac][Ac][Ac][Ac]/ | %65
 z/ [=A^c][Ac][Ac][Ac]/ z/ [Ac][Ac][Ac][Ac]/ | z/ [=G=B][GB][GB][GB]/ z/ [GB][GB][GB][GB]/ | %67
 z/ [=G=B][GB][GB][GB]/ z/ [_Gc][Gc][Gc][Gc]/ | z/ [=G=B][GB][GB][GB]/ z/ [_Gc][Gc][Gc][Gc]/ | x9 | %70
 x4 =G2 A2 | =G2 _G2- G4 | x4 x7/4 (3x/8x/8x/8 x7/4 x/8x/8 | x4 x7/4 (3x/8x/8x/8 x2 | %74
 x2/3!8va(! x22/3 | x5!8va)! x3 |[K:bass] x8 |] %77
V:5
 x8 | x11/3!8va(! x4/3!8va)! x3 | x85/24!8va(! x47/32!8va)! x3 | %3
 x211/60!8va(! x22/15!8va)! x181/60 | x8 || x8 | x8 | x8 | x8 | x8 | x8 | x8 | x8 | x8 | x8 | x8 | %16
 x8 | x8 | x8 | x8 | x8 | x8 | x8 |[K:bass] x8 | x4 (B,2 A,2) |[K:treble] x8 | x8 ||[K:A] x8 | x8 | %29
 x8 | x8 ||[K:F][M:7/4] x3 !arpeggio!x x2 x x8 | x14 | x14 | x14 | x14 | x14 | x14 | x14 | x14 | %40
 x14 | x14 | x14 | x14 | x14 | x14 ||[M:4/4] x8 | x8 | %48
 x7/2!8va(! x3/2!8va)! x5/2!8va(! x3/2!8va)! x | x8 | x8 | %51
 x7/2!8va(! x3/2!8va)! x5/2!8va(! x3/2!8va)! x | x8 | x8 ||[K:Db] x8 | x8 | x8 | x8 | x8 | x8 | %60
 x8 | x8 | x8 | x8 | x8 | x8 | x8 | x8 | x8 | x9 | x8 | x8 | x8 | x8 | x2/3!8va(! x22/3 | %75
 x5!8va)! x3 |[K:bass] x8 |] %77
V:6
 x8 | x11/3!8va(! x4/3!8va)! x3 | x85/24!8va(! x47/32!8va)! x3 | %3
 x211/60!8va(! x22/15!8va)! x181/60 | x8 || x8 | x8 | x8 | x8 | x8 | x8 | x8 | x8 | x8 | x8 | x8 | %16
 x8 | x8 | x8 | x8 | x8 | x8 | x8 |[K:bass] x8 | x8 |[K:treble] x8 | x8 ||[K:A] x8 | x8 | x8 | %30
 x8 ||[K:F][M:7/4] x x2 a' x2 x x8 | x14 | !arpeggio!x/ x3/2 x4 ^f2 d2 d2 ^c2 | [Ad]8 x4 x2 | x14 | %36
 x14 | A8 x4 x2 | A8 x4 x2 | x14 | x14 | x14 | x14 | x14 | x14 | x14 ||[M:4/4] x8 | x8 | %48
 x7/2!8va(! x3/2!8va)! x5/2!8va(! x3/2!8va)! x | x8 | x8 | %51
 x7/2!8va(! x3/2!8va)! x5/2!8va(! x3/2!8va)! x | x8 | x8 ||[K:Db] x8 | x8 | x8 | x8 | x8 | x8 | %60
 x8 | x8 | x8 | x8 | x8 | x8 | x8 | x8 | x8 | x9 | x8 | x7 x3/4 x/8x/8 | x8 | x8 | %74
 x2/3!8va(! x22/3 | x5!8va)! x3 |[K:bass] x8 |] %77
V:7
 x8 | x10/3[K:treble] x2/3[K:bass] x4 | x3[K:treble] x23/30[K:bass] x4 | %3
 x61/20[K:treble] x19/20[K:bass] x4 | x8 || x8 | x8 | x8 | x8 | x8 | x8 | x8 | x8 | %13
 x6[K:treble] x2 |[K:bass] x8 | x8 | x8 | x4[K:treble] x4 |[K:bass] x4[K:treble] x4 | %19
[K:bass] x[K:treble] x7 |[K:bass] x[K:treble] x3[K:treble] x4 | %21
[K:bass] x2[K:treble] x2[K:bass] x4 | x2[K:treble] x2[K:bass] x4 | x8 | x14/3[K:treble] x10/3 | %25
[K:bass] x8 | x8 ||[K:A] x2/3[K:treble] x22/3 |[K:bass] x2/3[K:treble] x22/3 | %29
[K:bass] x2[K:treble] x6 | x8 ||[K:F][M:7/4] x15 | x14 | x14 | [A,DF]8[K:bass] x4 x2 | x14 | x14 | %37
 x4 x3/2 (3x/4x/4x/4 x8 | x4 x3/2 (3x/4x/4x/4 x3/2 (3x/4x/4x/4 x3/2 (3x/4x/4x/4 x4[K:treble] | %39
[K:bass] x2[K:treble] x12 | x14 |[K:bass] x14 | x14 | x4[K:treble] x10 | x14 | x14 || %46
[M:4/4][K:bass] [B,,_D,]8 | x8 | x19/6[K:treble] x17/6[K:bass] x7/6[K:treble] x5/6[K:bass] x2 | %49
[K:bass] x8 | x8 | x19/6[K:treble] x17/6[K:bass] x7/6[K:treble] x5/6[K:bass] x2 |[K:bass] x8 | %53
 x8 ||[K:Db] x8 | x8 | x8 | x8 | x8 | x8 | x8 | x8 | x6[K:treble] x2 |[K:bass] x6[K:treble] x2 | %64
 x8 | x8 |[K:bass] x8 | x8 | x8 |[K:treble] x9 | x8 | x7 x3/4[K:bass] x/8x/8 | %72
[K:bass] x4 x7/4 (3x/8x/8x/8 x7/4 x/8x/8 | x4 x7/4 (3x/8x/8x/8 x2 | x8 |[K:treble] x6[K:bass] x2 | %76
 x8 |] %77

